X:19002
T:Saint Anne's Reel
R:Reel
C:Trad.
O:Canada, then Shetland
M:4/4
L:1/8
Q:1/4=120
K:D
"D"fedc edcB|A2FA DAFA|"G"B2GB EBGB|"D"A2FA DAFA|
"D"fedc edcB|A2FA DAFA|"G"B2ed "A7"cABc|"G"dedc "D"d2 de:|
|:"D"f2fe "D7"fdef|"G"gagf g2gf|"A7"edcB ABce|baa^g a2ag|
"D"f2fe fdef|"G"gagf g2gf|"A7"edcB ABcd|eddc "D"d2 de:|

